src/assets/Vector (42).svg

<svg width="78" height="68" viewBox="0 0 78 68" fill="none" xmlns="http://www.w3.org/2000/svg">
<path fill-rule="evenodd" clip-rule="evenodd" d="M21.5755 0.354371C20.9406 0.679778 0.679842 20.9541 0.399682 21.5442C0.197826 21.9697 0.198588 22.1733 0.407299 23.3723C1.6425 30.4698 6.65095 36.3892 13.4504 38.7873C14.9669 39.3222 16.8211 39.7336 17.8051 39.7532C18.8177 39.7736 19.1366 39.3399 20.4288 36.1856C21.038 34.6983 21.5797 33.4815 21.6329 33.4815C21.6859 33.4815 24.1618 35.9146 27.1348 38.8885L32.5401 44.2955L24.3612 52.4852C15.2218 61.6365 15.495 61.3019 15.4991 63.3409C15.5009 64.2164 15.5829 64.6521 15.8501 65.205C16.9037 67.385 19.371 68.4187 21.5755 67.6035C22.4464 67.2813 22.8789 66.8769 30.7548 59.0215L39.0202 50.7777L47.2079 58.9485C52.7521 64.4812 55.6171 67.234 56.0813 67.4746C56.6317 67.7598 57.0071 67.8299 57.9856 67.8302C59.4294 67.8306 60.249 67.5144 61.192 66.5934C62.1394 65.6679 62.5358 64.7106 62.5386 63.3409C62.5427 61.3019 62.8158 61.6365 53.6764 52.4852L45.4975 44.2955L50.9028 38.8885C53.8758 35.9146 56.3517 33.4815 56.4047 33.4815C56.4579 33.4815 56.9996 34.6984 57.6089 36.1856C58.901 39.3399 59.2199 39.7736 60.2325 39.7532C61.2165 39.7336 63.0707 39.3222 64.5873 38.7873C69.4122 37.0857 73.5046 33.4891 75.7975 28.9356C76.9931 26.5616 78.0415 22.5451 77.7029 21.6373C77.4976 21.0877 57.0741 0.647328 56.4198 0.336852C56.0245 0.149317 55.8124 0.133016 55.4252 0.260832C55.0889 0.371891 53.1335 2.225 49.261 6.10261L43.5891 11.782V12.4552V13.1284L47.0159 16.5671L50.4428 20.0058L48.607 21.8306C45.6417 24.7784 45.1194 25.772 44.6459 29.3669C44.2389 32.4566 44.044 32.8133 41.2342 35.6124L39.0188 37.8194L36.8034 35.6124C34.0247 32.8441 33.8102 32.4572 33.3858 29.4444C32.8466 25.618 32.5663 25.0621 29.6977 22.1319L27.6096 19.9991L31.0292 16.5637L34.4485 13.1284V12.4553V11.7821L28.8499 6.16278C23.949 1.24375 22.6979 0.114887 22.1516 0.119153C22.0861 0.119762 21.8268 0.225489 21.5755 0.354371ZM9.04199 17.0697L3.36505 22.7481L3.65786 23.8872C3.81888 24.5138 4.1318 25.5063 4.35331 26.0928C6.20322 30.9919 10.4446 34.8098 15.6126 36.2275C16.2712 36.4082 16.8645 36.4984 16.9311 36.428C16.9977 36.3575 18.533 32.7012 20.3428 28.3029L23.6336 20.3059L19.1762 15.8485L14.7189 11.3912L9.04199 17.0697ZM58.7839 15.9254L54.4045 20.3068L57.6949 28.3034C59.5046 32.7014 61.04 36.3575 61.1065 36.428C61.1731 36.4984 61.7665 36.4082 62.4251 36.2275C67.5932 34.8098 71.8391 30.9877 73.6834 26.0928C73.9045 25.5063 74.2146 24.5123 74.3729 23.8839L74.6604 22.7413L69.066 17.1427C65.989 14.0633 63.4022 11.544 63.3175 11.544C63.2326 11.544 61.1926 13.5157 58.7839 15.9254ZM25.7776 23.1602C25.7049 23.3488 25.0122 25.0363 24.2381 26.9103L22.8309 30.3175L28.753 36.2411L34.675 42.1645L35.7384 41.101L36.8019 40.0376L34.5829 37.7878C33.3624 36.5505 32.1445 35.2132 31.8765 34.8161C31.1308 33.7111 30.6686 32.296 30.4105 30.3269C30.1343 28.2197 29.9714 27.5616 29.4926 26.6168C29.1439 25.9285 26.3252 22.8175 26.0504 22.8175C25.973 22.8175 25.8502 22.9716 25.7776 23.1602ZM50.5809 24.1464C48.3072 26.5101 48.0047 27.107 47.7018 29.8253C47.6037 30.7051 47.4209 31.8362 47.2955 32.3389C46.7593 34.4879 47.1899 34.0106 32.3832 48.8682C24.2492 57.0302 18.6077 62.8049 18.5559 63.0222C18.4241 63.5747 18.8196 64.3529 19.3793 64.6424C19.7815 64.8505 19.9743 64.8671 20.4195 64.7322C20.8509 64.6015 24.574 60.9579 38.0863 47.4426L55.2067 30.3186L53.6781 26.611C52.8375 24.5718 52.0859 22.8822 52.0084 22.8563C51.9307 22.8304 51.2883 23.4108 50.5809 24.1464ZM42.1761 47.6149L41.1521 48.6469L49.1881 56.6638C55.473 62.9341 57.3293 64.703 57.7079 64.7822C58.6826 64.9865 59.7065 63.9711 59.4828 63.0222C59.4085 62.7067 43.5174 46.5831 43.2809 46.5831C43.2365 46.5831 42.7394 47.0474 42.1761 47.6149Z" fill="white"/>
</svg>

<svg xmlns="http://www.w3.org/2000/svg" width="78" height="68" fill="none" viewBox="0 0 78 68"><path fill="#fff" fill-rule="evenodd" d="M21.576.354C20.94.68.68 20.954.4 21.544c-.202.426-.201.63.007 1.828A20.03 20.03 0 0 0 13.45 38.787c1.517.535 3.371.947 4.355.966 1.013.02 1.332-.413 2.624-3.567.609-1.488 1.15-2.705 1.204-2.705.053 0 2.529 2.434 5.502 5.407l5.405 5.407-8.179 8.19c-9.14 9.151-8.866 8.817-8.862 10.856.002.875.084 1.311.351 1.864 1.054 2.18 3.521 3.214 5.726 2.398.87-.322 1.303-.726 9.179-8.581l8.265-8.244 8.188 8.17c5.544 5.533 8.41 8.286 8.873 8.527.55.285.926.355 1.905.355 1.443 0 2.263-.316 3.206-1.237.947-.925 1.344-1.882 1.347-3.252.004-2.04.277-1.705-8.863-10.856l-8.178-8.19 5.405-5.407c2.973-2.973 5.449-5.407 5.502-5.407s.595 1.217 1.204 2.705c1.292 3.154 1.61 3.588 2.624 3.567.984-.02 2.838-.43 4.354-.966 4.825-1.701 8.918-5.298 11.21-9.851 1.196-2.374 2.245-6.39 1.906-7.299-.205-.55-20.629-20.99-21.283-21.3-.395-.188-.608-.204-.995-.076-.336.11-2.291 1.964-6.164 5.842l-5.672 5.679v1.346l3.427 3.44 3.427 3.438-1.836 1.825c-2.965 2.947-3.488 3.941-3.961 7.536-.407 3.09-.602 3.446-3.412 6.245L39.02 37.82l-2.216-2.207c-2.778-2.768-2.993-3.155-3.417-6.168-.54-3.826-.82-4.382-3.688-7.312L27.611 20l3.42-3.435 3.419-3.436v-1.346l-5.6-5.62C23.95 1.245 22.699.116 22.153.12c-.066 0-.325.106-.576.235M9.042 17.07l-5.677 5.678.293 1.14a26 26 0 0 0 .695 2.205c1.85 4.899 6.092 8.717 11.26 10.135.658.18 1.252.27 1.318.2s1.602-3.727 3.412-8.125l3.29-7.997-4.457-4.458-4.457-4.457zm49.742-1.145-4.38 4.382 3.29 7.996c1.81 4.398 3.346 8.055 3.412 8.125.067.07.66-.02 1.32-.2 5.167-1.418 9.413-5.24 11.257-10.135.221-.587.532-1.58.69-2.21l.287-1.142-5.594-5.598c-3.077-3.08-5.664-5.599-5.748-5.599s-2.125 1.972-4.534 4.381M25.778 23.16c-.073.189-.766 1.876-1.54 3.75l-1.407 3.407 5.922 5.924 5.922 5.923 1.063-1.063 1.064-1.063-2.22-2.25c-1.22-1.237-2.437-2.575-2.706-2.972-.745-1.105-1.207-2.52-1.466-4.49-.276-2.106-.439-2.764-.917-3.71-.35-.687-3.168-3.799-3.443-3.799-.077 0-.2.155-.272.343m24.803.986c-2.274 2.364-2.576 2.961-2.88 5.68-.097.88-.28 2.01-.406 2.513-.536 2.149-.105 1.672-14.912 16.53-8.134 8.161-13.775 13.936-13.827 14.153-.132.553.264 1.33.823 1.62.402.209.595.225 1.04.09.432-.13 4.155-3.774 17.667-17.29l17.12-17.123-1.528-3.708c-.84-2.04-1.592-3.729-1.67-3.755s-.72.555-1.427 1.29m-8.405 23.469-1.024 1.032 8.036 8.017c6.285 6.27 8.141 8.039 8.52 8.118.975.205 1.999-.81 1.775-1.76-.075-.315-15.966-16.439-16.202-16.439-.044 0-.542.464-1.105 1.032" clip-rule="evenodd"/></svg>
